img/main-index-background-gradient.svg

<svg viewBox="0 0 1619 1775" fill="none" xmlns="http://www.w3.org/2000/svg"><path d="M635 760c-170-7-347-40-420-79l278 596s39-202 386-164c235 37 516-2.86 630-90 84.28-64.418 82-235-16-292s-215-70-371-43c-149 25.789-317 79-487 72z" fill="url(#paint0_linear)"/><path d="M1529.08 997.802c8.16-8.292 15.21-16.902 20.92-25.802l-20.92 25.802C1462.96 1064.97 1323.25 1111.21 1220 1121c-116 11-250 4-376-11-131-15.6-217.619 5.95-298 63s-93.48 191.33-24.356 255.8C621 1521.46 701 1507 895 1449c215-30 171 120 171 120l463.08-571.198z" fill="url(#paint1_linear)"/><g filter="url(#filter0_d)"><path d="M1165.5 120C1074 131 969.015 104.485 897 88c-83-19-295-98-616 18-333.308 120.447-259 462.549-88 562.5 142 83 490 121.236 765.5 50.5 218.5-56.101 559.2-92 606 113.5 16.6 72.913 10.5 168-133 232.5-109 48.99-282.96 80.51-514 51.5C587 1075 454 1184 482 1353c13.456 81.22 97.52 141 204 141 119 0 129-50.5 257-50.5 139 0 159 108.68 94 144.5-65 35.82-94 93.5-94 143" stroke="transparent" stroke-width="15" stroke-linejoin="round"/></g><path fill="url(#paint3_linear)" d="M446 1431h733v329H446z"/><defs><linearGradient id="paint0_linear" x1="1570" y1="866" x2="215" y2="976" gradientUnits="userSpaceOnUse"><stop offset=".503" stop-color="#FFFAF7"/><stop offset="1" stop-color="#FFFAF7" stop-opacity="0"/></linearGradient><linearGradient id="paint1_linear" x1="498" y1="1204" x2="1448.67" y2="1441.28" gradientUnits="userSpaceOnUse"><stop stop-color="#FFFAF7"/><stop offset=".724" stop-color="#FFFAF7" stop-opacity="0"/></linearGradient><linearGradient id="paint2_linear" x1="809.404" y1="44.075" x2="809.404" y2="1731" gradientUnits="userSpaceOnUse"><stop stop-color="#F1D6BF"/><stop offset="1" stop-color="#FCEEE1"/></linearGradient><linearGradient id="paint3_linear" x1="813" y1="1720.81" x2="814.867" y2="1430.99" gradientUnits="userSpaceOnUse"><stop stop-color="#fff"/><stop offset="1" stop-color="#fff" stop-opacity="0"/></linearGradient><filter id="filter0_d" x=".349" y=".579" width="1618.11" height="1774.42" filterUnits="userSpaceOnUse" color-interpolation-filters="sRGB"><feFlood flood-opacity="0" result="BackgroundImageFix"/><feColorMatrix in="SourceAlpha" values="0 0 0 0 0 0 0 0 0 0 0 0 0 0 0 0 0 0 127 0"/><feOffset dy="4"/><feGaussianBlur stdDeviation="20"/><feColorMatrix values="0 0 0 0 0.760784 0 0 0 0 0.529412 0 0 0 0 0.403922 0 0 0 0.15 0"/><feBlend in2="BackgroundImageFix" result="effect1_dropShadow"/><feBlend in="SourceGraphic" in2="effect1_dropShadow" result="shape"/></filter></defs></svg>

<svg viewBox="0 0 1619 1775" fill="none" xmlns="http://www.w3.org/2000/svg">
<path d="M635 760C465 753 288 720 215 681L493 1277C493 1277 532 1075 879 1113C1114 1150 1395 1110.14 1509 1023C1593.28 958.582 1591 788 1493 731C1395 674 1278 661 1122 688C973 713.789 805 767 635 760Z" fill="url(#paint0_linear)"/>
<path d="M1529.08 997.802C1537.24 989.51 1544.29 980.9 1550 972L1529.08 997.802C1462.96 1064.97 1323.25 1111.21 1220 1121C1104 1132 970 1125 844 1110C713 1094.4 626.381 1115.95 546 1173C465.619 1230.05 452.52 1364.33 521.644 1428.8C621 1521.46 701 1507 895 1449C1110 1419 1066 1569 1066 1569L1529.08 997.802Z" fill="url(#paint1_linear)"/>
<g filter="url(#filter0_d)">
<path d="M1165.5 120C1074 131 969.015 104.485 897 87.9999C814 68.9999 602 -10.0001 281 106C-52.3084 226.447 21.9999 568.549 193 668.5C335 751.5 683 789.736 958.5 719C1177 662.899 1517.7 627 1564.5 832.5C1581.1 905.413 1575 1000.5 1431.5 1065C1322.5 1113.99 1148.54 1145.51 917.5 1116.5C587 1075 454 1184 482 1353C495.456 1434.22 579.52 1494 686 1494C805 1494 815 1443.5 943 1443.5C1082 1443.5 1102 1552.18 1037 1588C972 1623.82 943 1681.5 943 1731" stroke="transparent" stroke-width="15" stroke-linejoin="round"/>
</g>
<rect x="446" y="1431" width="733" height="329" fill="url(#paint3_linear)"/>
<defs>
<filter id="filter0_d" x="0.349365" y="0.578979" width="1618.11" height="1774.42" filterUnits="userSpaceOnUse" color-interpolation-filters="sRGB">
<feFlood flood-opacity="0" result="BackgroundImageFix"/>
<feColorMatrix in="SourceAlpha" type="matrix" values="0 0 0 0 0 0 0 0 0 0 0 0 0 0 0 0 0 0 127 0"/>
<feOffset dy="4"/>
<feGaussianBlur stdDeviation="20"/>
<feColorMatrix type="matrix" values="0 0 0 0 0.760784 0 0 0 0 0.529412 0 0 0 0 0.403922 0 0 0 0.15 0"/>
<feBlend mode="normal" in2="BackgroundImageFix" result="effect1_dropShadow"/>
<feBlend mode="normal" in="SourceGraphic" in2="effect1_dropShadow" result="shape"/>
</filter>
<linearGradient id="paint0_linear" x1="1570" y1="866" x2="215" y2="976" gradientUnits="userSpaceOnUse">
<stop offset="0.502762" stop-color="#FFFAF7"/>
<stop offset="1" stop-color="#FFFAF7" stop-opacity="0"/>
</linearGradient>
<linearGradient id="paint1_linear" x1="498" y1="1204" x2="1448.67" y2="1441.28" gradientUnits="userSpaceOnUse">
<stop stop-color="#FFFAF7"/>
<stop offset="0.723986" stop-color="#FFFAF7" stop-opacity="0"/>
</linearGradient>
<linearGradient id="paint2_linear" x1="809.404" y1="44.0747" x2="809.404" y2="1731" gradientUnits="userSpaceOnUse">
<stop stop-color="#F1D6BF"/>
<stop offset="1" stop-color="#FCEEE1"/>
</linearGradient>
<linearGradient id="paint3_linear" x1="813" y1="1720.81" x2="814.867" y2="1430.99" gradientUnits="userSpaceOnUse">
<stop stop-color="white"/>
<stop offset="1" stop-color="white" stop-opacity="0"/>
</linearGradient>
</defs>
</svg>
